!!!COM: Gaspar van Weerbeke
!!!CDT: ~1450-~1517
!!!OPR: Missa Se mieulx ne vient
!!!OTL: Credo
!!!ONM: 3
!!!AGN: Mass
!!!SCT: Gas0104c
!!!SCA: Gas0104c
!!!voices: 4
**kern	**text	**kern	**text	**kern	**text	**kern	**text
*part4	*part4	*part3	*part3	*part2	*part2	*part1	*part1
*staff4	*staff4	*staff3	*staff3	*staff2	*staff2	*staff1	*staff1
*I"Bassus	*	*I"Tenor	*	*I"Altus	*	*I"Superius	*
*I'B	*	*I'T	*	*I'A	*	*I'S	*
*clefF4	*	*clefGv2	*	*clefGv2	*	*clefG2	*
*k[]	*	*k[]	*	*k[]	*	*k[]	*
*M3/2	*	*M3/2	*	*M3/2	*	*M3/2	*
*met(O)	*	*met(O)	*	*met(O)	*	*met(O)	*
=1	=1	=1	=1	=1	=1	=1	=1
1D	Pa-	1.r	.	1d	Pa-	1d	Pa-
2G	-trem	.	.	2B	-trem	2d	-trem
=2	=2	=2	=2	=2	=2	=2	=2
2E	om-	1.r	.	4G	om-	2g	om-
.	.	.	.	4B	-ni-	.	.
4E	-ni-	.	.	4B	-pot-	4g	-ni-
4E	-pot-	.	.	4.c	-en-	4g	-pot-
2F	-en-	.	.	.	.	2a	-en-
.	.	.	.	8B	.	.	.
.	.	.	.	4A	.	.	.
=3	=3	=3	=3	=3	=3	=3	=3
4G	-tem,	1.r	.	4G	-tem,	2b	-tem,
*	*edit	*	*	*	*edit	*	*
4G	fa-	.	.	2d	fa-	.	.
4G	-cto-	.	.	.	.	2b	fa-
4G	-rem	.	.	2d	-cto-	.	.
2G	ce-	.	.	.	.	4b	-cto-
.	.	.	.	4d	-rem	4b	-rem
=4	=4	=4	=4	=4	=4	=4	=4
2C	-li	1.r	.	4.e	ce-	4.cc	ce-
.	.	.	.	8d	.	8b	.
1G	et	.	.	2.B	-li	4g	-li
.	.	.	.	.	.	4.dd	et
.	.	.	.	.	.	8cc	.
.	.	.	.	4B	et	4b	.
!!LO:LB:g=original
=5	=5	=5	=5	=5	=5	=5	=5
4.F	ter-	1.r	.	4.c	ter-	4.a	ter-
8G	.	.	.	8B	.	8g	.
4A	.	.	.	4A	.	4f	.
4B-i	.	.	.	2d	.	4d	.
2A	-re,	.	.	.	.	2e	.
.	.	.	.	4c#i	.	.	.
=6	=6	=6	=6	=6	=6	=6	=6
4r	.	1.r	.	4d	-re,	2d	-re,
*	*Xedit	*	*	*	*	*	*
2D	vi-	.	.	4f	vi-	.	.
.	.	.	.	2e	-si-	4r	.
4C	-si-	.	.	.	.	4g	vi-
4.D	-bi-	.	.	2d	-bi-	4f	-si-
.	.	.	.	.	.	[4a	-bi-
8E	.	.	.	.	.	.	.
=7	=7	=7	=7	=7	=7	=7	=7
4F	-li-	1.r	.	4c	-li-	4a]	.
4G	-um	.	.	4B	-um	4g	-li-
4.D	om-	.	.	2d	om-	4f	-um
.	.	.	.	.	.	2a	om-
8E	.	.	.	.	.	.	.
4F	.	.	.	4c	.	.	.
4G	.	.	.	4B	.	4g	.
=8	=8	=8	=8	=8	=8	=8	=8
4D	-ni-	1.r	.	2d	-ni-	4f	.
4GG	-um,	.	.	.	.	4b-i	.
4AA	.	.	.	4c	.	4a	.
4BB	.	.	.	4B	.	2g	.
4C	et	.	.	2A	-um,	.	.
4D	.	.	.	.	.	4f#i	-ni-
=9	=9	=9	=9	=9	=9	=9	=9
4.GG	in-	1.r	.	2G	et	2g	-um.
8AA	.	.	.	.	.	.	.
8BBL	.	.	.	4.D	in-	2r	.
8CJ	.	.	.	.	.	.	.
4.D	-vi-	.	.	.	.	.	.
.	.	.	.	8E	.	.	.
.	.	.	.	8F#jL	-vi-	2r	.
8E	.	.	.	8GJ	.	.	.
[4F#j	-si-	.	.	[4A	-si-	.	.
!!LO:LB:g=original
=10	=10	=10	=10	=10	=10	=10	=10
8F#]L	.	1.r	.	8A]L	.	1.r	.
8GJ	.	.	.	8BJ	.	.	.
2A	-bi-	.	.	4.c	-bi-	.	.
.	.	.	.	8BL	.	.	.
2G	.	.	.	8A	.	.	.
.	.	.	.	8GJ	.	.	.
.	.	.	.	2A	-li-	.	.
4F#i	-li-	.	.	.	.	.	.
=11	=11	=11	=11	=11	=11	=11	=11
4G	-um.	1.r	.	2G	-um.	4r	.
4GG	Et	.	.	.	.	4d	Et
2C	in	.	.	2r	.	4e	in
.	.	.	.	.	.	4e	u-
4BB	.	.	.	4r	.	4d	-num
*	*	*	*	*	*Xedit	*	*
[4D	u-	.	.	4D	Et	4a	Do-
=12	=12	=12	=12	=12	=12	=12	=12
4D]	.	1.r	.	4E	in	4g	.
4C#j	.	.	.	4E	u-	4e	.
2D	-num	.	.	4D	-num	4f	.
*	*	*	*	*	*edit	*	*
.	.	.	.	4.F	Do-	4.a	.
2r	.	.	.	.	.	.	.
.	.	.	.	8G	.	8gL	.
.	.	.	.	[4A	.	8f	.
.	.	.	.	.	.	8eJ	.
=13	=13	=13	=13	=13	=13	=13	=13
2BB	Do-	1.r	.	4A]	.	4.d	.
.	.	.	.	4G	.	.	.
.	.	.	.	.	.	8B	.
4AA	.	.	.	4A	.	4c	.
4D	-mi-	.	.	4F	.	2d	-mi-
2AA	-num	.	.	2E	-mi-	.	.
.	.	.	.	.	.	4c#i	.
!!LO:PB:g=original
=14	=14	=14	=14	=14	=14	=14	=14
2r	.	1.r	.	2D	-num	2.d	-num
4r	.	.	.	2r	.	.	.
4AA	Je-	.	.	.	.	4c	Je-
4BB	.	.	.	2r	.	4d	.
4C	-sum	.	.	.	.	4e	-sum
=15	=15	=15	=15	=15	=15	=15	=15
4D	Chri-	1.r	.	4r	.	4f	Chri-
*	*	*	*	*	*Xedit	*	*
4F	.	.	.	4A	Je-	4d	-stum,
2E	.	.	.	4B	.	2r	.
.	.	.	.	4c	-sum	.	.
2D	-stum,	.	.	4d	Chri-	4r	.
.	.	.	.	4f	-stum,	4a	Fi-
=16	=16	=16	=16	=16	=16	=16	=16
4G	Fi-	1.r	.	2e	Fi-	4b	.
4A	.	.	.	.	.	4cc	.
2B	-li-	.	.	4d	-li-	4.dd	-li-
.	.	.	.	4.g	-um	.	.
.	.	.	.	.	.	8cc	.
2G	-um	.	.	.	.	8bL	.
.	.	.	.	8fL	.	8aJ	.
.	.	.	.	8e	.	[4g	-um
.	.	.	.	8dJ	.	.	.
=17	=17	=17	=17	=17	=17	=17	=17
4r	.	1.r	.	2.e	De-	4g]	.
4C	De-	.	.	.	.	4cc	De-
4E	.	.	.	.	.	4b	.
4F	.	.	.	4c	.	2a	.
2G	.	.	.	2B	.	.	.
.	.	.	.	.	.	4g	.
!!LO:LB:g=original
=18	=18	=18	=18	=18	=18	=18	=18
2D	-i	[1.D	U-	2A	-i	2a	-i
2r	.	.	.	4.d	u-	4.f	u-
.	.	.	.	8c	.	8g	.
4.F	u-	.	.	4A	-ni-	4a	.
.	.	.	.	8dL	-ge-	4b-i	.
8G	.	.	.	8eJ	.	.	.
=19	=19	=19	=19	=19	=19	=19	=19
4A	-ni-	1.D]	.	2f	.	4a	-ni-
4B-i	-ge-	.	.	.	.	4.dd	-ge-
4A	.	.	.	4d	.	.	.
.	.	.	.	.	.	8cc	.
4G	-ni-	.	.	2g	-ni-	4b	.
2A	-tum.	.	.	.	.	2a	-ni-
.	.	.	.	4f#i	.	.	.
=20	=20	=20	=20	=20	=20	=20	=20
*	*	*lig	*	*	*	*	*
2r	.	1.G	-ni-	2.g	-tum.	2b	-tum.
*lig	*	*	*	*	*	*	*
1GG	Et	.	.	.	.	2b	Et
.	.	.	.	8fL	.	.	.
.	.	.	.	8eJ	.	.	.
.	.	.	.	4.d	Et	4b	ex
.	.	.	.	.	.	[4b	Pa-
.	.	.	.	8e	.	.	.
=21	=21	=21	=21	=21	=21	=21	=21
1.D	.	1.A	-ge-	4.f	ex	8b]L	.
*Xlig	*	*	*	*	*	*	*
.	.	.	.	.	.	8aJ	.
.	.	.	.	.	.	4.a	-tre
.	.	.	.	8e	.	.	.
.	.	.	.	8dL	.	.	.
.	.	.	.	8cJ	.	8gL	.
.	.	.	.	4.d	Pa-	8f#j	.
.	.	.	.	.	.	8eJ	.
.	.	.	.	.	.	2f#j	na-
.	.	.	.	8c	.	.	.
.	.	.	.	4A	-tre	.	.
!!LO:LB:g=original
=22	=22	=22	=22	=22	=22	=22	=22
[1.GG	ex	[1.B	-ni-	4d	na-	2g	-tum
.	.	.	.	4d	-tum	.	.
.	.	.	.	4d	an-	4r	.
.	.	.	.	4d	-te	2dd	an-
.	.	.	.	4.B	om-	.	.
.	.	.	.	.	.	4dd	-te
.	.	.	.	8A	.	.	.
=23	=23	=23	=23	=23	=23	=23	=23
1.GG]	.	1.B]	.	2G	-ni-	4dd	om-
*	*	*Xlig	*	*	*	*	*
.	.	.	.	.	.	4dd	-ni-
.	.	.	.	1d	-a	2b	-a
.	.	.	.	.	.	4g	.
.	.	.	.	.	.	[4g	se-
=24	=24	=24	=24	=24	=24	=24	=24
1C	Pa-	2.c	-tum.	4e	se-	8g]L	.
.	.	.	.	.	.	8f	.
.	.	.	.	4c	.	8e	.
.	.	.	.	.	.	8dJ	.
.	.	.	.	4A	.	4.e	-cu-
.	.	8BL	.	4c	.	.	.
.	.	8AJ	.	.	.	8f	.
2E	-tre	2G	.	2B	-cu-	2g	-la.
=25	=25	=25	=25	=25	=25	=25	=25
4D	.	4d	Et	4B	-la.	2r	.
2C	na-	2e	ex	4c	.	.	.
.	.	.	.	4A	.	4r	.
4BB	.	4d	.	4B	.	4b	De-
2AA	.	2c	.	2r	.	4cc	.
.	.	.	.	.	.	4a	.
=26	=26	=26	=26	=26	=26	=26	=26
2GG	-tum	4.B	Pa-	2d	De-	2b	-um
.	.	8G	.	.	.	.	.
4r	.	2G	-tre...	4d	-um	2b	de
*	*	*	*	*	*edit	*	*
4G	an-	.	.	4d	de	.	.
*	*	*	*	*	*Xedit	*	*
4G	-te	2r	.	4d	De-	4b	De-
[4G	om-	.	.	[4d	-o,	4b	-o,
!!LO:LB:g=original
=27	=27	=27	=27	=27	=27	=27	=27
4G]	.	1.r	.	4d]	.	2b	lu-
4G	-ni-	.	.	4d	lu-	.	.
4G	-a	.	.	4d	-men	4b	-men
4G	se-	.	.	4d	de	2b	de
4E	.	.	.	4.e	lu-	.	.
4C	.	.	.	.	.	[4cc	lu-
.	.	.	.	8d	.	.	.
=28	=28	=28	=28	=28	=28	=28	=28
4.F	-cu-	1.r	.	4c	.	4cc]	.
.	.	.	.	2d	-mi-	4a	.
8D	.	.	.	.	.	.	.
4D	-la.	.	.	.	.	2b	-mi-
2G	De-	.	.	4B	-ne,	.	.
*	*	*	*	*	*edit	*	*
.	.	.	.	4B	De-	4g	-ne,
4C	-um	.	.	4e	-um	4g	De-
=29	=29	=29	=29	=29	=29	=29	=29
4G	de	1.r	.	4d	ve-	4b	.
4A	De-	.	.	4c	.	8ccL	.
.	.	.	.	.	.	8bJ	.
4F	.	.	.	4d	.	8aL	.
.	.	.	.	.	.	8gJ	.
4G	.	.	.	4B	.	2g	.
2D	-o,	.	.	2A	-rum	.	.
.	.	.	.	.	.	4f	.
=30	=30	=30	=30	=30	=30	=30	=30
*	*	*	*	*	*Xedit	*	*
2r	.	1.r	.	4.G	de	4e	-um
.	.	.	.	.	.	2d	ve-
.	.	.	.	8F	.	.	.
4r	.	.	.	4.D	De-	.	.
4GG	lu-	.	.	.	.	4B	.
.	.	.	.	8E	.	.	.
4.D	.	.	.	4.F	.	4.A	.
8C	.	.	.	8G	.	8G	.
!!LO:PB:g=original
=31	=31	=31	=31	=31	=31	=31	=31
2AA	-men	2r	.	2A	-o	2c	.
4GG	de	4G	De	2B	ve-	2B	-rum
2BB	lu-	4.d	De-	.	.	.	.
.	.	.	.	2G	-ro.	2r	.
.	.	8c	.	.	.	.	.
[4D	.	4A	.	.	.	.	.
=32	=32	=32	=32	=32	=32	=32	=32
4D]	.	4A	-o	4F#i	Ge-	2r	.
4BB	.	2G	ve-	4G	.	.	.
2AA	-mi-	.	.	2A	.	2r	.
.	.	4F#i	.	.	.	.	.
2GG	-ne,	2G	-ro.	2B	.	4g	de
.	.	.	.	.	.	[4dd	De-
=33	=33	=33	=33	=33	=33	=33	=33
2r	.	4r	.	4A	.	8dd]L	.
.	.	.	.	.	.	8ccJ	.
.	.	4D	Ge-	2d	-ni-	4a	.
4r	.	4F	.	.	.	4a	-o
4GG	De-	4G	-ni-	4B	.	2g	ve-
2D	-um	2A	-tum,	2A	-tum,	.	.
.	.	.	.	.	.	4f#i	.
=34	=34	=34	=34	=34	=34	=34	=34
*	*	*	*edit	*	*	*	*
4E	ve-	4G	non	4r	.	4g	.
4D	.	4F	.	2d	non	2a	.
*	*	*lig	*	*	*	*	*
2E	-rum	2G	fa-	.	.	.	.
.	.	.	.	4c	.	2g	.
2D	de	2A	.	2d	.	.	.
*	*	*Xlig	*	*	*	*	*
.	.	.	.	.	.	4f#i	.
=35	=35	=35	=35	=35	=35	=35	=35
4E	De-	2G	-ctum,	4B	fa-	2g	-ro.
4C	.	.	.	8cL	.	.	.
.	.	.	.	8BJ	.	.	.
4D	.	2r	.	8AL	.	4r	.
.	.	.	.	8GJ	.	.	.
4BB	-o	.	.	2G	.	4b	Ge-
2AA	ve-	2r	.	.	.	4cc	-ni-
.	.	.	.	4F#i	.	4a	-tum,
!!LO:PB:g=original
=36	=36	=36	=36	=36	=36	=36	=36
2GG	-ro.	1.r	.	4G	.	4b	non
.	.	.	.	4B	.	2g	fa-
2r	.	.	.	2A	.	.	.
.	.	.	.	.	.	4f#i	.
2GG	Ge-	.	.	2G	-ctum,	2g	-ctum,
=37	=37	=37	=37	=37	=37	=37	=37
2BB	-ni-	2r	.	1.r	.	4d	.
.	.	.	.	.	.	2g	con-
2C	-tum,	2G	con-	.	.	.	.
.	.	.	.	.	.	4e	-sub-
4BB	non	4B	-sub-	.	.	2d	-stan-
4D	.	4B	-stan-	.	.	.	.
=38	=38	=38	=38	=38	=38	=38	=38
4.C	fa-	2c	-ti-	4.G	con-	2e	-ti-
8BB	.	.	.	8A	.	.	.
2GG	-ctum,	4B	.	4.B	-sub-	4.d	-a-
.	.	4.d	-a-	.	.	.	.
.	.	.	.	8c	.	8e	.
4r	.	.	.	8dL	-stan-	8fL	.
.	.	8c	.	8eJ	.	8gJ	.
4D	con-	4A	.	4f	-ti-	[4a	.
=39	=39	=39	=39	=39	=39	=39	=39
2G	-sub-	4B-i	.	1d	-a-	4a]	.
.	.	8AL	.	.	.	4g	.
.	.	8GJ	.	.	.	.	.
2D	-stan-	4.F	-lem	.	.	2a	-lem
.	.	8G	.	.	.	.	.
4D	-ti-	4A	Pa-	4.A	.	4f	Pa-
4D	-a-	4F	.	.	.	4d	.
.	.	.	.	8B	.	.	.
!!LO:LB:g=original
=40	=40	=40	=40	=40	=40	=40	=40
4C	-lem	4E	.	2c	-lem	4e	.
4.D	Pa-	4D	.	.	.	2f	.
.	.	2F	-tri:	2A	Pa-	.	.
8C	.	.	.	.	.	.	.
4D	.	.	.	.	.	2d	.
*	*	*	*Xedit	*	*	*	*
2AA	-tri:	2E	per	2A	-tri:	.	.
.	.	.	.	.	.	4c#i	.
=41	=41	=41	=41	=41	=41	=41	=41
4r	.	1.D	quem	2F	per	2d	-tri:
2A	per	.	.	.	.	.	.
.	.	.	.	4.F	quem	4r	.
2F	quem	.	.	.	.	4a	per
.	.	.	.	8G	.	.	.
.	.	.	.	[2A	om-	4a	quem
[4D	om-	.	.	.	.	[4f	om-
=42	=42	=42	=42	=42	=42	=42	=42
4D]	.	1d	om-	4A]	.	4f]	.
4G	.	.	.	4B-i	.	4d	.
4F	.	.	.	4A	.	4a	.
4G	.	.	.	2B-i	-ni-	4g	.
2A	-ni-	2c	.	.	.	2cc	-ni-
.	.	.	.	4A	.	.	.
=43	=43	=43	=43	=43	=43	=43	=43
1G	-a	1d	-ni-	2B-i	-a	4b-i	.
.	.	.	.	.	.	4b-i	-a
.	.	.	.	4G	.	4.b-i	fa-
.	.	.	.	2d	fa-	.	.
.	.	.	.	.	.	8g	.
4F	fa-	2d	-a	.	.	4a	.
4G	.	.	.	4B-i	.	4b-i	.
!!LO:LB:g=original
=44	=44	=44	=44	=44	=44	=44	=44
4F	.	2.f	fa-	4c	.	8aL	.
.	.	.	.	.	.	8g	.
2D	.	.	.	2d	.	8f	.
.	.	.	.	.	.	8eJ	.
.	.	.	.	.	.	4d	.
4BB-i	-cta	4d	.	4D	-cta	2dd	.
2AA	sunt.	2e	-cta	2A	sunt,	.	.
.	.	.	.	.	.	4cc	-cta
=45	=45	=45	=45	=45	=45	=45	=45
*	*	*	*	*	*edit	*	*
2r	.	2d	sunt.	4D	fa-	4dd	sunt.
.	.	.	.	4G	.	4dd	Qui
4D	Qui	4f	Qui	4F	.	4dd	pro-
4D	pro-	4f	pro-	4D	-cta	8ccL	.
.	.	.	.	.	.	8bJ	.
4D	-pter	4f	-pter	2A	sunt.	4a	-pter
4D	nos	4f	nos	.	.	4dd	nos
=46	=46	=46	=46	=46	=46	=46	=46
4E	ho-	4e	ho-	4r	.	4cc	ho-
*	*	*	*	*	*Xedit	*	*
2G	.	2d	.	4G	Qui	2b	.
.	.	.	.	4B	pro-	.	.
4A	.	4c	.	4c	-pter	2a	.
2E	-mi-	2B	-mi-	2e	nos	.	.
.	.	.	.	.	.	4g#i	-mi-
=47	=47	=47	=47	=47	=47	=47	=47
2F	-nes,	1A	-nes,	2c	ho-	2a	-nes,
4D	et	.	.	2d	.	4r	.
4F	pro-	.	.	.	.	4a	et
4E	-pter	2r	.	4e	.	4g	pro-
[4G	no-	.	.	4d	.	4b	-pter
!!LO:PB:g=original
=48	=48	=48	=48	=48	=48	=48	=48
4G]	.	2r	.	4c	.	2a	no-
4F	.	.	.	4A	.	.	.
2G	-stram	2r	.	2B	.	2g	-stram
*	*edit	*	*	*	*	*	*
2F	sa-	4r	.	4.c	.	4a	sa-
.	.	4A	de-	.	.	4cc	.
.	.	.	.	8d	.	.	.
=49	=49	=49	=49	=49	=49	=49	=49
2G	-lu-	4G	.	8eL	.	4b	-lu-
.	.	.	.	8fJ	.	.	.
.	.	4B	-scen-	2g	-mi-	4g	.
2D	-tem,	2A	.	.	.	2a	.
.	.	.	.	4f#i	.	.	.
4r	.	2G	-dit	2g	-nes,	4d	-tem
*	*Xedit	*	*	*	*	*	*
4E	sa-	.	.	.	.	4g	de-
=50	=50	=50	=50	=50	=50	=50	=50
*	*	*	*edit	*	*	*	*
4D	.	1d	de	2r	.	4f	.
2F	-lu-	.	.	.	.	2a	-scen-
.	.	.	.	2r	.	.	.
4D	.	.	.	.	.	4f	.
2E	.	2c	.	4r	.	4g	.
.	.	.	.	4G	et	4e	.
=51	=51	=51	=51	=51	=51	=51	=51
2D	-tem	1d	ce-	4A	pro-	4f	.
.	.	.	.	4F	-pter	4d	.
2r	.	.	.	4D	no-	4.f	.
.	.	.	.	4.F	-stram	.	.
.	.	.	.	.	.	8g	.
2r	.	2A	-lis,	.	.	8aL	.
.	.	.	.	8GL	.	8bJ	.
.	.	.	.	8A	.	[4cc	.
.	.	.	.	8BJ	.	.	.
!!LO:LB:g=original
=52	=52	=52	=52	=52	=52	=52	=52
4AA	de-	1.r	.	4.c	sa-	8cc]L	.
.	.	.	.	.	.	8bJ	.
4.C	-scen-	.	.	.	.	4g	-dit
.	.	.	.	8B	.	.	.
.	.	.	.	2G	-lu-	2r	.
8DL	.	.	.	.	.	.	.
8E	.	.	.	.	.	.	.
8DJ	.	.	.	.	.	.	.
4.F	.	.	.	2c	-tem	2r	.
8E	.	.	.	.	.	.	.
=53	=53	=53	=53	=53	=53	=53	=53
*	*	*lig	*Xedit	*	*	*	*
2C	-dit	1.e	de	2c	de-	4.g	de
.	.	.	.	.	.	8a	.
2r	.	.	.	4B	.	4b	.
*	*	*	*	*	*	*	*edit
.	.	.	.	4.A	-scen-	4.cc	ce-
4r	.	.	.	.	.	.	.
.	.	.	.	8G	.	8b	.
4C	de	.	.	4E	.	4g	-lis,
=54	=54	=54	=54	=54	=54	=54	=54
*	*edit	*	*	*	*	*	*
4D	ce-	1d	.	4F	-dit	2r	.
*	*	*Xlig	*	*	*	*	*
4BB	.	.	.	2D	de	.	.
*	*	*	*	*	*	*	*Xedit
4GG	.	.	.	.	.	2b	ce-
4BB	.	.	.	2G	ce-	.	.
2AA	.	2c	.	.	.	4cc	.
.	.	.	.	4F#j	.	4a	.
=55	=55	=55	=55	=55	=55	=55	=55
4GG	-lis,	4B	ce-	4G	.	4b	.
*	*Xedit	*	*	*	*	*	*
4F	ce-	4c	.	4A	.	2a	.
4G	.	4B	.	4B	.	.	.
4E	.	4G	.	4c	.	2g	.
2D	.	2A	.	2d	.	.	.
.	.	.	.	.	.	4f#i	.
=56	=56	=56	=56	=56	=56	=56	=56
1.GGl	-lis.	1.Gl	-lis.	1.dl	-lis.	1.gl	-lis.
!!LO:LB:g=original
=57||	=57||	=57||	=57||	=57||	=57||	=57||	=57||
*M2/2	*	*M2/2	*	*M2/2	*	*M2/2	*
*met(C|)	*	*met(C|)	*	*met(C|)	*	*met(C|)	*
1r	.	1r	.	1r	.	1d	Et
=58	=58	=58	=58	=58	=58	=58	=58
1r	.	1r	.	1r	.	2c	in-
.	.	.	.	.	.	2c	-car-
=59	=59	=59	=59	=59	=59	=59	=59
1D	Et	1r	.	1r	.	4B	-na-
.	.	.	.	.	.	4.d	.
.	.	.	.	.	.	8c	.
.	.	.	.	.	.	4B	.
=60	=60	=60	=60	=60	=60	=60	=60
2C	in-	1r	.	1r	.	8cL	.
.	.	.	.	.	.	8B	.
.	.	.	.	.	.	8A	.
.	.	.	.	.	.	8GJ	.
2C	-car-	.	.	.	.	2A	-tus
=61	=61	=61	=61	=61	=61	=61	=61
4BB	-na-	1r	.	1d	Et	1B	est
4.D	.	.	.	.	.	.	.
8C	.	.	.	.	.	.	.
4BB	.	.	.	.	.	.	.
=62	=62	=62	=62	=62	=62	=62	=62
8CL	.	1r	.	2c	in-	1r	.
8BB	.	.	.	.	.	.	.
8AA	.	.	.	.	.	.	.
8GGJ	.	.	.	.	.	.	.
2AA	.	.	.	2c	-car-	.	.
!!LO:LB:g=original
=63	=63	=63	=63	=63	=63	=63	=63
4.BB	.	1r	.	4B	-na-	1r	.
.	.	.	.	4.d	.	.	.
8C	.	.	.	.	.	.	.
4D	.	.	.	.	.	.	.
.	.	.	.	8c	.	.	.
[4E	.	.	.	4B	.	.	.
=64	=64	=64	=64	=64	=64	=64	=64
8E]L	.	1r	.	8cL	.	1r	.
8D	.	.	.	8B	.	.	.
8C	.	.	.	8A	.	.	.
8BBJ	.	.	.	8GJ	.	.	.
2C	-tus	.	.	2A	-tus	.	.
=65	=65	=65	=65	=65	=65	=65	=65
6BB	est	1r	.	1B	est	1b	de
6C	.	.	.	.	.	.	.
6D	.	.	.	.	.	.	.
4GG	.	.	.	.	.	.	.
4G	de	.	.	.	.	.	.
=66	=66	=66	=66	=66	=66	=66	=66
4A	.	1r	.	1r	.	2a	Spi-
2F	Spi-	.	.	.	.	.	.
.	.	.	.	.	.	2a	-ri-
8EL	.	.	.	.	.	.	.
8FJ	.	.	.	.	.	.	.
=67	=67	=67	=67	=67	=67	=67	=67
2G	-ri-	1r	.	1B	de	4g	-tu
.	.	.	.	.	.	4.b	San-
2GG	-tu,	.	.	.	.	.	.
.	.	.	.	.	.	8a	.
.	.	.	.	.	.	4g	.
=68	=68	=68	=68	=68	=68	=68	=68
*	*edit	*	*	*	*	*	*
4D	Spi-	1r	.	2A	Spi-	8aL	.
.	.	.	.	.	.	8g	.
4D	-ri-	.	.	.	.	8f#i	.
.	.	.	.	.	.	8eJ	.
2D	-tu	.	.	2A	-ri-	2f#i	.
!!LO:PB:g=original
=69	=69	=69	=69	=69	=69	=69	=69
*	*Xedit	*	*	*	*	*	*
2GG	San-	1r	.	4G	-tu	4g	-cto,
*	*	*	*	*	*	*	*edit
.	.	.	.	2B	San-	2d	San-
2GG	-cto	.	.	.	.	.	.
.	.	.	.	8AL	.	8cL	.
.	.	.	.	8GJ	.	8BJ	.
=70	=70	=70	=70	=70	=70	=70	=70
2rD	.	1r	.	8AL	.	8cL	.
.	.	.	.	8G	.	8B	.
.	.	.	.	8F#i	.	8A	.
.	.	.	.	8EJ	.	8GJ	.
2D	ex	.	.	2F#i	.	2A	.
=71	=71	=71	=71	=71	=71	=71	=71
4.E	Ma-	1r	.	2G	-cto	2G	-cto
8D	.	.	.	.	.	.	.
4BB	.	.	.	2d	ex	2r	.
4D	.	.	.	.	.	.	.
=72	=72	=72	=72	=72	=72	=72	=72
4.C	-ri-	1r	.	4.e	Ma-	2r	.
8BB	.	.	.	8d	.	.	.
*	*	*	*	*	*	*	*Xedit
2GG	-a	.	.	4B	.	2d	ex
.	.	.	.	4d	.	.	.
=73	=73	=73	=73	=73	=73	=73	=73
1r	.	1r	.	4.c	-ri-	4.e	Ma-
.	.	.	.	8B	.	8d	.
.	.	.	.	2G	-a	4B	.
.	.	.	.	.	.	4d	.
!!LO:LB:g=original
=74	=74	=74	=74	=74	=74	=74	=74
1r	.	1r	.	4r	.	4c	-ri-
.	.	.	.	4.g	Vir-	8BL	.
.	.	.	.	.	.	8AJ	.
.	.	.	.	.	.	4G	-a
.	.	.	.	8f	.	.	.
.	.	.	.	[4e	.	4g	Vir-
=75	=75	=75	=75	=75	=75	=75	=75
1r	.	1r	.	8e]L	.	4a	.
.	.	.	.	8d	.	.	.
.	.	.	.	8c	.	2b	-gi-
.	.	.	.	8BJ	.	.	.
.	.	.	.	2c	-gi	.	.
.	.	.	.	.	.	4a	.
=76	=76	=76	=76	=76	=76	=76	=76
2.G	Vir-	1r	.	2B	ne:	2b	-ne:
.	.	.	.	2B	et	2g	et
[4E	.	.	.	.	.	.	.
=77	=77	=77	=77	=77	=77	=77	=77
8E]L	.	1r	.	2c	ho-	2a	ho
8CJ	.	.	.	.	.	.	.
4.F	-gi-	.	.	.	.	.	.
.	.	.	.	2A	-mo,	2cc	mo
8E	.	.	.	.	.	.	.
4F	.	.	.	.	.	.	.
=78	=78	=78	=78	=78	=78	=78	=78
*	*	*	*	*	*	*	*edit
2G	-ne:	1r	.	2r	.	4.b	fa-
.	.	.	.	.	.	8g	.
*	*	*	*	*	*edit	*	*
2r	.	.	.	2G	et	4b	.
.	.	.	.	.	.	[4cc	.
!!LO:LB:g=original
=79	=79	=79	=79	=79	=79	=79	=79
4.F	et	1r	.	2A	ho-	8cc]L	.
.	.	.	.	.	.	8b	.
.	.	.	.	.	.	8a	.
8G	.	.	.	.	.	8gJ	.
2A	ho-	.	.	2c	-mo	4.f	-ctus
.	.	.	.	.	.	8e	.
=80	=80	=80	=80	=80	=80	=80	=80
*	*	*	*	*	*Xedit	*	*
2G	-mo	1r	.	4.B	fa-	2g	est,
.	.	.	.	8G	.	.	.
4.E	fa-	.	.	4B	.	4r	.
*	*	*	*	*	*	*	*Xedit
.	.	.	.	[4c	.	4g	fa-
8D	.	.	.	.	.	.	.
=81	=81	=81	=81	=81	=81	=81	=81
4.C	.	1r	.	8c]L	.	4.a	.
.	.	.	.	8B	.	.	.
.	.	.	.	8A	.	.	.
8BB	.	.	.	8GJ	.	8b	.
2AA	-ctus,	.	.	2F	-ctus,	2cc	-ctus,
=82	=82	=82	=82	=82	=82	=82	=82
*	*edit	*	*	*	*edit	*	*edit
4G	fa-	1r	.	4G	fa-	4b	fa-
4F	.	.	.	4A	.	4a	.
4G	.	.	.	4G	.	4b	.
4D	.	.	.	4A	.	4a	.
=83	=83	=83	=83	=83	=83	=83	=83
2G	.	1r	.	4G	.	4b	.
.	.	.	.	4B	.	4g	.
4D	.	.	.	4A	.	4a	.
4G	-ctus	.	.	4G	-ctus	4b	-ctus
=84	=84	=84	=84	=84	=84	=84	=84
*	*Xedit	*	*	*	*Xedit	*	*Xedit
1D;	est.	1r	.	1d;	est.	1a;	est.
!!LO:LB:g=original
=85	=85	=85	=85	=85	=85	=85	=85
1r	.	1r	.	2.A	Cru-	2.cc	Cru-
.	.	.	.	4A	-ci-	4cc	-ci-
=86	=86	=86	=86	=86	=86	=86	=86
1r	.	1r	.	2c	-fi-	4.g	-fi-
.	.	.	.	.	.	8a	.
.	.	.	.	2G	-xus	2b	-xus
=87	=87	=87	=87	=87	=87	=87	=87
1r	.	1r	.	4d	e-	4a	e-
.	.	.	.	4c	-ti-	4a	-ti-
.	.	.	.	4B	-am	4g	-am
.	.	.	.	[4A	pro	[4a	pro
=88	=88	=88	=88	=88	=88	=88	=88
1r	.	1r	.	4A]	.	4a]	.
.	.	.	.	2d	no-	8gL	.
.	.	.	.	.	.	8fJ	.
.	.	.	.	.	.	2e	no-
.	.	.	.	4c#j	.	.	.
=89	=89	=89	=89	=89	=89	=89	=89
1r	.	1r	.	2d	-bis:	4d	-bis:
.	.	.	.	.	.	4d	sub
.	.	.	.	4A	sub	2f	Pon-
.	.	.	.	[4d	Pon-	.	.
!!LO:LB:g=original
=90	=90	=90	=90	=90	=90	=90	=90
1r	.	1r	.	4d]	.	4f	-ti-
.	.	.	.	4d	-ti-	2d	-o
.	.	.	.	2B	-o	.	.
.	.	.	.	.	.	4d	Pi-
=91	=91	=91	=91	=91	=91	=91	=91
2r	.	1r	.	4G	Pi-	2g	-la
.	.	.	.	2c	-la-	.	.
2C	Pas-	.	.	.	.	2e	to
.	.	.	.	[4A	-to	.	.
=92	=92	=92	=92	=92	=92	=92	=92
2F	-sus,	1r	.	4A]	.	2r	.
.	.	.	.	4.d	pas-	.	.
4D	et	.	.	.	.	4a	pas-
.	.	.	.	8cL	.	.	.
[4G	se-	.	.	8B	.	[4b	.
.	.	.	.	8AJ	.	.	.
=93	=93	=93	=93	=93	=93	=93	=93
4G]	.	1r	.	4d	.	4b]	.
4.A	-pul-	.	.	4c	.	4.cc	.
.	.	.	.	4A	-sus,	.	.
8GL	.	.	.	.	.	8bL	.
8F	.	.	.	[4d	et	8a	.
8EJ	.	.	.	.	.	8gJ	.
=94	=94	=94	=94	=94	=94	=94	=94
4D	.	1r	.	4d]	.	4f	-sus,
2G	.	.	.	8cL	.	4g	.
.	.	.	.	8BJ	.	.	.
.	.	.	.	2A	.	2a	et
4F#i	.	.	.	.	.	.	.
!!LO:LB:g=original
=95	=95	=95	=95	=95	=95	=95	=95
2G	.	1r	.	4.G	se-	2d	se-
.	.	.	.	8A	.	.	.
4E	.	.	.	8BL	.	4e	.
.	.	.	.	8cJ	.	.	.
[4G	.	.	.	[4B	-pul-	[4d	-pul-
=96	=96	=96	=96	=96	=96	=96	=96
8G]L	.	1r	.	8B]L	.	4d]	.
8F	.	.	.	8A	.	.	.
8E	.	.	.	8G	.	8cL	.
8DJ	.	.	.	8FJ	.	8BJ	.
4E	.	.	.	4G	.	4c	.
[4D	.	.	.	[4A	.	[4d	.
=97	=97	=97	=97	=97	=97	=97	=97
8D]L	.	1r	.	4A]	.	8d]L	.
8EJ	.	.	.	.	.	8AJ	.
4G	.	.	.	2G	.	4B	-tus
2D	-tus	.	.	.	.	2A	est.
.	.	.	.	4F#i	-tus	.	.
=98	=98	=98	=98	=98	=98	=98	=98
1GG	est.	1r	.	2G	est.	2d	Et
.	.	.	.	2r	.	4e	re-
.	.	.	.	.	.	4e	-sur-
=99	=99	=99	=99	=99	=99	=99	=99
1r	.	1r	.	2A	Et	2f	-re-
.	.	.	.	4B	re-	2d	-xit
.	.	.	.	4B	-sur-	.	.
!!LO:LB:g=original
=100	=100	=100	=100	=100	=100	=100	=100
1r	.	1r	.	2c	-re-	2e	ter-
.	.	.	.	2A	-xit	4f	-ti-
.	.	.	.	.	.	4f	-a
=101	=101	=101	=101	=101	=101	=101	=101
1r	.	1r	.	2B	ter-	2.g	di-
.	.	.	.	4c	-ti-	.	.
.	.	.	.	4c	-a	8fL	.
.	.	.	.	.	.	8eJ	.
=102	=102	=102	=102	=102	=102	=102	=102
1r	.	1r	.	2.d	di-	4d	.
.	.	.	.	.	.	2f	.
.	.	.	.	8cL	.	4g	.
.	.	.	.	8BJ	.	.	.
=103	=103	=103	=103	=103	=103	=103	=103
1r	.	1r	.	4A	-e,	1a	-e,
.	.	.	.	2c	se-	.	.
.	.	.	.	4d	.	.	.
=104	=104	=104	=104	=104	=104	=104	=104
1r	.	1r	.	1e	-cun-	2g	se-
.	.	.	.	.	.	2cc	-cun-
=105	=105	=105	=105	=105	=105	=105	=105
1r	.	1r	.	2d	-dum	2.b	-dum
.	.	.	.	2g	Scri-	.	.
.	.	.	.	.	.	4g	Scri-
!!LO:LB:g=original
=106	=106	=106	=106	=106	=106	=106	=106
1r	.	1r	.	2.f	-ptu-	4.a	-ptu-
.	.	.	.	.	.	8b	.
.	.	.	.	.	.	4cc	.
.	.	.	.	4d	.	[4dd	.
=107	=107	=107	=107	=107	=107	=107	=107
1r	.	1r	.	2e	.	4dd]	.
.	.	.	.	.	.	4cc	.
.	.	.	.	4.d	.	4b	.
.	.	.	.	.	.	[4a	.
.	.	.	.	8e	.	.	.
=108	=108	=108	=108	=108	=108	=108	=108
1r	.	1r	.	4f	.	4a]	.
.	.	.	.	2g	.	4g	.
.	.	.	.	.	.	2a	-ras,
.	.	.	.	4f#j	.	.	.
=109	=109	=109	=109	=109	=109	=109	=109
2G	Et	1r	.	2g	-ras.	1r	.
4.E	a-	.	.	2r	.	.	.
8F	.	.	.	.	.	.	.
=110	=110	=110	=110	=110	=110	=110	=110
4G	.	1r	.	2d	Et	1r	.
4D	.	.	.	.	.	.	.
4G	-scen-	.	.	4.B	a-	.	.
8FL	.	.	.	.	.	.	.
8EJ	.	.	.	8c	.	.	.
=111	=111	=111	=111	=111	=111	=111	=111
2D	-dit	1r	.	4d	.	1r	.
.	.	.	.	4A	.	.	.
4r	.	.	.	4d	-scen-	.	.
4D	in	.	.	8cL	.	.	.
.	.	.	.	8BJ	.	.	.
!!LO:LB:g=original
=112	=112	=112	=112	=112	=112	=112	=112
2F	ce-	1r	.	2A	-dit	1r	.
2E	.	.	.	4r	.	.	.
.	.	.	.	4c	in	.	.
=113	=113	=113	=113	=113	=113	=113	=113
2D	.	1r	.	4d	ce-	1r	.
.	.	.	.	4.f	.	.	.
2A	.	.	.	.	.	.	.
.	.	.	.	8e	.	.	.
.	.	.	.	[4e	.	.	.
=114	=114	=114	=114	=114	=114	=114	=114
2G	.	1r	.	8e]L	.	1r	.
.	.	.	.	8d	.	.	.
.	.	.	.	8c	.	.	.
.	.	.	.	8BJ	.	.	.
4F	.	.	.	8AL	.	.	.
.	.	.	.	8G	.	.	.
[4A	.	.	.	8F	.	.	.
.	.	.	.	8EJ	.	.	.
=115	=115	=115	=115	=115	=115	=115	=115
4A]	.	1r	.	4D	-lum,	1r	.
*	*	*	*	*	*edit	*	*
4F	.	.	.	2d	ce-	.	.
2E	.	.	.	.	.	.	.
.	.	.	.	4c#i	.	.	.
=116	=116	=116	=116	=116	=116	=116	=116
2D	-lum:	1r	.	2d	-lum:	4r	.
.	.	.	.	.	.	4d	Se-
2D	se-	.	.	4r	.	4f	-det
*	*	*	*	*	*Xedit	*	*
.	.	.	.	4D	se-	4f	ad
!!LO:LB:g=original
=117	=117	=117	=117	=117	=117	=117	=117
4D	-det	1r	.	4F	-det	4.a	dex-
4D	ad	.	.	4F	ad	.	.
.	.	.	.	.	.	8a	-te-
4.D	dex-	.	.	4.A	dex-	4f	-ram
.	.	.	.	.	.	4d	.
8D	-te-	.	.	8A	-te-	.	.
=118	=118	=118	=118	=118	=118	=118	=118
2D	-ram	1r	.	4F	-ram	4.dd	Pa-
.	.	.	.	4D	.	.	.
.	.	.	.	.	.	8cc	.
*	*edit	*	*	*	*	*	*
4F	Pa-	.	.	4.d	Pa-	4a	.
4G	.	.	.	.	.	4b-j	.
.	.	.	.	8e	.	.	.
=119	=119	=119	=119	=119	=119	=119	=119
4D	-tris,	1r	.	4f	.	4a	.
4r	.	.	.	4.g	.	4.b-j	.
*	*Xedit	*	*	*	*	*	*
4G	Pa-	.	.	.	.	.	.
.	.	.	.	8fL	.	8a	.
[4A	.	.	.	8e	.	[4cc	.
.	.	.	.	8dJ	.	.	.
=120	=120	=120	=120	=120	=120	=120	=120
8A]L	.	1r	.	2c	.	8cc]L	.
8G	.	.	.	.	.	8b-j	.
8F	.	.	.	.	.	8a	.
8EJ	.	.	.	.	.	8gJ	.
4D	.	.	.	4d	.	4f	.
4E	.	.	.	4c	.	4e	.
=121	=121	=121	=121	=121	=121	=121	=121
1Dl	-tris.	1r	.	1dl	-tris.	1fl	-tris.
!!LO:PB:g=original
=122||	=122||	=122||	=122||	=122||	=122||	=122||	=122||
*M2/2	*	*M2/2	*	*M2/2	*	*M2/2	*
*met(C|)	*	*met(C|)	*	*met(C|)	*	*met(C|)	*
2GG	Et	1r	.	1r	.	1r	.
4GG	i-	.	.	.	.	.	.
4GG	-te-	.	.	.	.	.	.
=123	=123	=123	=123	=123	=123	=123	=123
2C	-rum	1r	.	1r	.	1r	.
2C	ven-	.	.	.	.	.	.
=124	=124	=124	=124	=124	=124	=124	=124
2D	-tu-	1r	.	1r	.	2d	Et
2D	-rus	.	.	.	.	4d	i-
.	.	.	.	.	.	4d	-te-
=125	=125	=125	=125	=125	=125	=125	=125
2E	est	1r	.	1r	.	2g	-rum
2G	cum	.	.	.	.	2g	ven-
=126	=126	=126	=126	=126	=126	=126	=126
4.F	glo-	2D	Cum	1r	.	2a	-tu-
8E	.	.	.	.	.	.	.
2D	-ri-	2D	glo-	.	.	2a	-rus
=127	=127	=127	=127	=127	=127	=127	=127
1GG	-a,	2G	-ri-	1r	.	1b	est,
.	.	2G	-a,	.	.	.	.
!!LO:LB:g=original
=128	=128	=128	=128	=128	=128	=128	=128
1r	.	4A	ju-	2D	Cum	1r	.
.	.	4A	-di-	.	.	.	.
.	.	2A	-ca-	2D	glo-	.	.
=129	=129	=129	=129	=129	=129	=129	=129
1r	.	2B	-re	2G	-ri-	2r	.
.	.	2B	vi-	2G	-a,	4b	ju-
.	.	.	.	.	.	4b	-di-
=130	=130	=130	=130	=130	=130	=130	=130
4F	ju-	2c	-vos	4A	ju-	2a	-ca-
4F	-di-	.	.	4A	-di-	.	.
2F	-ca-	2A	et	2A	-ca-	2cc	-re
=131	=131	=131	=131	=131	=131	=131	=131
2G	-re	2.G	mor-	2B	-re	2b	vi-
2E	vi-	.	.	2B	vi-	2g	.
.	.	4G	-tu-	.	.	.	.
=132	=132	=132	=132	=132	=132	=132	=132
*	*	*	*	*lig	*	*	*
2E	-vos	2G	-os:	2G	-vos	2b	-vos
2D	et	2d	cu-	2A	.	2a	et
*	*	*	*	*Xlig	*	*	*
=133	=133	=133	=133	=133	=133	=133	=133
2G	mor-	2d	-jus	1r	.	2b	mor-
4F	.	2d	re-	.	.	4a	.
[4G	-tu-	.	.	.	.	[4b	-tu-
!!LO:LB:g=original
=134	=134	=134	=134	=134	=134	=134	=134
4G]	.	2d	-gni	2G	et	4b]	.
8FL	.	.	.	.	.	8aL	.
8EJ	.	.	.	.	.	8gJ	.
2D	-os:	4r	.	4.A	mor-	2f#i	-os:
.	.	4d	non	.	.	.	.
.	.	.	.	8B	.	.	.
=135	=135	=135	=135	=135	=135	=135	=135
4.C	cu-	2.e	e-	4.c	-tu-	4r	.
.	.	.	.	.	.	4.g	cu-
8D	.	.	.	8B	.	.	.
8EL	.	.	.	4.G	-os:	.	.
8FJ	.	.	.	.	.	8aL	.
[4G	-jus	8dL	.	.	.	8b	.
.	.	8cJ	.	8A	.	8ccJ	.
=136	=136	=136	=136	=136	=136	=136	=136
4G]	.	4.B	-rit	8BL	.	4.dd	-jus
.	.	.	.	8cJ	.	.	.
2G	re-	.	.	4.d	cu-	.	.
.	.	8A	.	.	.	8cc	.
.	.	4B	.	.	.	4b	.
.	.	.	.	8eL	.	.	.
[4F	.	[4c	fi-	8f	.	[4a	re-
.	.	.	.	8gJ	.	.	.
=137	=137	=137	=137	=137	=137	=137	=137
4F]	.	4c]	.	4a	-jus	4a]	.
4G	.	2B	.	2g	re-	4b	.
2A	.	.	.	.	.	2cc	.
.	.	4A	.	4f#i	.	.	.
=138	=138	=138	=138	=138	=138	=138	=138
1G	-gni	2.B	.	2g	-gni	2b	-gni
.	.	.	.	2d	.	4r	.
.	.	4G	.	.	.	[4b	non
=139	=139	=139	=139	=139	=139	=139	=139
4r	.	2G	-nis.	2e	non	4b]	.
4C	non	.	.	.	.	4cc	e-
4G	e-	2r	.	4d	e-	4b	-rit
4A	-rit	.	.	4c	-rit	[4a	fi-
!!LO:LB:g=original
=140	=140	=140	=140	=140	=140	=140	=140
4F	fi-	4r	.	4d	fi-	4a]	.
4G	.	4G	Et	4B	.	2g	.
2D	.	2d	in	2A	.	.	.
.	.	.	.	.	.	4f#i	.
=141	=141	=141	=141	=141	=141	=141	=141
2GG	.	4B	Spi-	4G	-nis.	2g	-nis.
.	.	4G	.	2G	Et-	.	.
2D	.	2A	.	.	.	2r	.
.	.	.	.	4F#i	.	.	.
=142	=142	=142	=142	=142	=142	=142	=142
4BB	.	4G	-ri-	4G	-in	1r	.
4GG	.	2G	-tum	4B	Spi-	.	.
2AA	.	.	.	4c	.	.	.
.	.	4F#i	.	4A	-ri-	.	.
=143	=143	=143	=143	=143	=143	=143	=143
2GG	-nis.	2G	San-	4B	-tum	4.d	Et
.	.	.	.	4.d	San-	.	.
.	.	.	.	.	.	8e	.
4r	.	4D	-ctum,	.	.	4f	in
.	.	.	.	8c	.	.	.
4GG	Et	4G	Do-	4B	.	4g	.
=144	=144	=144	=144	=144	=144	=144	=144
4D	in	4F	.	8AL	.	4a	Spi-
.	.	.	.	8BJ	.	.	.
4E	.	4G	.	4c	.	2g	.
2D	.	2A	-mi-	2d	-ctum,	.	.
.	.	.	.	.	.	4f#i	-ri-
=145	=145	=145	=145	=145	=145	=145	=145
*	*	*	*	*	*edit	*	*
2.E	Spi-	1G	-num:	2.B	San-	2.g	-tum
4D	-ri-	.	.	4c	.	8fL	.
.	.	.	.	.	.	8eJ	.
!!LO:PB:g=original
=146	=146	=146	=146	=146	=146	=146	=146
4BB	-tum	1r	.	4d	.	4d	San-
2C	San-	.	.	4e	.	4c	.
.	.	.	.	2d	-ctum,	2f	.
4BB	.	.	.	.	.	.	.
=147	=147	=147	=147	=147	=147	=147	=147
*	*	*	*	*	*Xedit	*	*
4C	-ctum,	1r	.	4c	Do-	1e	-ctum,
2E	Do-	.	.	8BL	.	.	.
.	.	.	.	8AJ	.	.	.
.	.	.	.	8GL	.	.	.
.	.	.	.	8FJ	.	.	.
[4G	.	.	.	8EL	-mi-	.	.
.	.	.	.	8DJ	.	.	.
=148	=148	=148	=148	=148	=148	=148	=148
4G]	.	1r	.	4C	-num,	1r	.
4E	.	.	.	2c	et	.	.
2D	-mi-	.	.	.	.	.	.
.	.	.	.	4B	.	.	.
=149	=149	=149	=149	=149	=149	=149	=149
1C	-num,	1G	qui	2c	vi-	2.e	Do-
.	.	.	.	2c	-vi-	.	.
.	.	.	.	.	.	4e	-mi-
=150	=150	=150	=150	=150	=150	=150	=150
2C	et	2G	ex	2c	-fi-	2e	-num,
2C	vi-	2G	Pa-	2c	-can-	2e	et
=151	=151	=151	=151	=151	=151	=151	=151
2GG	-vi-	1B	-tre	4.B	-tem:	4d	vi-
.	.	.	.	.	.	4d	-vi-
.	.	.	.	8c	.	.	.
4GG	-fi-	.	.	2d	.	4.d	-fi-
4G	-can-	.	.	.	.	.	.
.	.	.	.	.	.	8c	.
!!LO:LB:g=original
=152	=152	=152	=152	=152	=152	=152	=152
4A	.	2c	Fi-	1r	.	2A	-can-
2F	.	.	.	.	.	.	.
.	.	2c	-li-	.	.	2A	-tem:
8EL	.	.	.	.	.	.	.
8FJ	.	.	.	.	.	.	.
=153	=153	=153	=153	=153	=153	=153	=153
1G	-tem:	2B	-o-	4.d	qui	4r	.
.	.	.	.	.	.	4.g	qui
.	.	.	.	8c	.	.	.
.	.	[2d	-que	8BL	.	.	.
.	.	.	.	8AJ	.	8a	.
.	.	.	.	4G	ex	[4b	ex
=154	=154	=154	=154	=154	=154	=154	=154
1r	.	4d]	.	4F	Pa-	4b]	.
.	.	8cL	.	4G	.	8aL	.
.	.	8BJ	.	.	.	8gJ	.
.	.	2A	pro-	2D	-tre	2f#i	Pa-
=155	=155	=155	=155	=155	=155	=155	=155
2GG	qui	2.B-i	-ce-	2.d	Fi-	2g	-tre
2GG	ex	.	.	.	.	2g	Fi-
.	.	8AL	.	4e	.	.	.
.	.	8GJ	.	.	.	.	.
=156	=156	=156	=156	=156	=156	=156	=156
2D	Pa-	2.F	.	4.f	-li-	4a	-li-
.	.	.	.	.	.	2a	-o-
.	.	.	.	8e	.	.	.
2D	-tre	.	.	8dL	.	.	.
.	.	.	.	8cJ	.	.	.
.	.	4D	.	[4d	-o-	8gL	.
.	.	.	.	.	.	8fJ	.
=157	=157	=157	=157	=157	=157	=157	=157
2r	.	2E	.	4d]	.	2g	-que
.	.	.	.	4c	.	.	.
*	*edit	*	*	*	*	*	*
2A	Fi-	[2D	-dit.	4.d	.	2f	pro-
.	.	.	.	8e	.	.	.
!!LO:LB:g=original
=158	=158	=158	=158	=158	=158	=158	=158
4F	-li-	2D]	.	8fL	.	4.d	-ce-
.	.	.	.	8gJ	.	.	.
4F	-o-	.	.	2a	-que	.	.
.	.	.	.	.	.	8e	.
2D	-que	[2d	Qui	.	.	8fL	.
.	.	.	.	.	.	8gJ	.
.	.	.	.	[4A	pro-	[4a	.
=159	=159	=159	=159	=159	=159	=159	=159
4F	pro-	2d]	.	4A]	.	4a]	.
4G	.	.	.	4G	.	4b-j	.
4F	.	2d	cum	4A	.	4a	.
4G	.	.	.	4B-j	.	4g	.
=160	=160	=160	=160	=160	=160	=160	=160
2D	-ce-	2d	Pa-	4.A	-ce-	4a	.
.	.	.	.	.	.	4f	.
.	.	.	.	8B	.	.	.
2A	.	2c	-tre	4c	.	2e	.
.	.	.	.	4A	.	.	.
=161	=161	=161	=161	=161	=161	=161	=161
4D	-dit.	1d	et	4A	-dit.	2d	-dit.
*	*Xedit	*	*	*	*	*	*
2G	Qui	.	.	2B-j	Qui	.	.
.	.	.	.	.	.	4r	.
8FL	.	.	.	8AL	.	[4g	Qui
8EJ	.	.	.	8GJ	.	.	.
=162	=162	=162	=162	=162	=162	=162	=162
*	*	*	*	*lig	*	*	*
2D	cum	2d	Fi-	2A	cum	4g]	.
.	.	.	.	.	.	4f	.
2G	Pa-	4d	-li-	2B-j	.	2g	cum
*	*	*	*	*Xlig	*	*	*
.	.	4d	-o	.	.	.	.
=163	=163	=163	=163	=163	=163	=163	=163
2F	.	2f	si-	2A	Pa-	2a	Pa-
4D	-tre	2f	-mul	2d	-tre	4.a	-tre
4D	et	.	.	.	.	.	.
.	.	.	.	.	.	8g	.
!!LO:LB:g=original
=164	=164	=164	=164	=164	=164	=164	=164
4.D	Fi-	2d	ad-	1r	.	4a	et
.	.	.	.	.	.	4b-j	Fi-
8E	.	.	.	.	.	.	.
4F	.	2d	-o-	.	.	4a	-li-
[4G	-li-	.	.	.	.	[4b-j	-o
=165	=165	=165	=165	=165	=165	=165	=165
8G]L	.	1e	-ra-	2r	.	8b-]L	.
8F	.	.	.	.	.	8aJ	.
*	*	*	*	*	*	*	*edit
8E	.	.	.	.	.	4.cc	si-
8DJ	.	.	.	.	.	.	.
2C	.	.	.	4.c	si-	.	.
.	.	.	.	.	.	8b-jL	.
.	.	.	.	.	.	8a	.
.	.	.	.	8B-j	.	8gJ	.
=166	=166	=166	=166	=166	=166	=166	=166
1D	-o	[1d	-tur:	4A	-mul-	4f	-mul
.	.	.	.	4G	.	2g	ad-
.	.	.	.	2A	-ad-	.	.
.	.	.	.	.	.	4f#i	.
=167	=167	=167	=167	=167	=167	=167	=167
1r	.	1d]	.	2.G	-o-	2g	-o-
.	.	.	.	.	.	2b-j	-ra-
.	.	.	.	4E	-ra-	.	.
=168	=168	=168	=168	=168	=168	=168	=168
2r	.	1r	.	4F	-tur,	2a	-tur,
.	.	.	.	4.D	et	.	.
4.D	et-	.	.	.	.	2dd	et
.	.	.	.	8EL	.	.	.
.	.	.	.	8F	.	.	.
8E	.	.	.	8GJ	.	.	.
=169	=169	=169	=169	=169	=169	=169	=169
4F	-con-	1r	.	4A	con-	4cc	con-
4G	-glo-	.	.	4B-j	-glo-	4b-j	-glo-
4A	-ri-	.	.	4c	-ri-	4a	-ri-
4G	-fi-	.	.	[4d	-fi-	[4b-j	-fi-
!!LO:PB:g=original
=170	=170	=170	=170	=170	=170	=170	=170
4D	-ca-	1r	.	8d]L	.	4b-]	.
.	.	.	.	8AJ	.	.	.
4F	.	.	.	4c	-ca-	2a	-ca-
2G	.	.	.	2B-i	.	.	.
.	.	.	.	.	.	4g	.
=171	=171	=171	=171	=171	=171	=171	=171
1D	-tur:	1f	qui	1A	-tur:	1a	-tur:
=172	=172	=172	=172	=172	=172	=172	=172
2D	qui	1f	lo-	2d	qui	2r	.
*	*	*	*	*	*	*	*Xedit
2D	lo-	.	.	2d	lo-	2a	qui
=173	=173	=173	=173	=173	=173	=173	=173
2F	-cu-	2f	-cu-	2c	-cu-	4a	lo-
.	.	.	.	.	.	2a	-cu-
2F	-tus	2f	-tus	4c	-tus	.	.
.	.	.	.	[4c	est	4a	-tus
=174	=174	=174	=174	=174	=174	=174	=174
2C	est	1e	est	8c]L	.	2cc	est
.	.	.	.	8d	.	.	.
.	.	.	.	8e	.	.	.
.	.	.	.	8fJ	.	.	.
4r	.	.	.	2g	per	2cc	per
4C	per	.	.	.	.	.	.
=175	=175	=175	=175	=175	=175	=175	=175
4G	Pro-	2d	per	2r	.	2b	Pro-
4D	.	.	.	.	.	.	.
2F	-phe-	2c	Pro-	2f	Pro-	[2a	-phe-
=176	=176	=176	=176	=176	=176	=176	=176
1G	-tas.	1B	-phe-	2d	-phe-	2a]	.
.	.	.	.	2d	-tas.	2dd	-tas.
!!LO:LB:g=original
=177	=177	=177	=177	=177	=177	=177	=177
1r	.	1A	-tas.	2e	Et	4cc	Et
.	.	.	.	.	.	4.cc	u-
.	.	.	.	2e	u-	.	.
.	.	.	.	.	.	8bL	.
.	.	.	.	.	.	8a	.
.	.	.	.	.	.	8gJ	.
=178	=178	=178	=178	=178	=178	=178	=178
2D	Et	1A	Et	2d	-nam	2f	-nam
4C	u-	.	.	4e	san-	4e	.
4D	.	.	.	4f	.	[4a	san-
=179	=179	=179	=179	=179	=179	=179	=179
4C	.	2A	u-	4e	.	4a]	.
4D	.	.	.	2d	.	8gL	.
.	.	.	.	.	.	8fJ	.
2AA	-nam	2A	-nam	.	.	2e	.
.	.	.	.	4c	.	.	.
=180	=180	=180	=180	=180	=180	=180	=180
4D	san-	1A	san-	4d	.	4d	.
4C	.	.	.	4e	.	2g	.
2D	.	.	.	2d	.	.	.
.	.	.	.	.	.	4f#j	.
=181	=181	=181	=181	=181	=181	=181	=181
4.E	.	2G	-ctam	4.B	.	2g	-ctam,
8D	.	.	.	8c	.	.	.
4BB	.	2B	ca-	4d	.	4d	.
*	*	*	*	*	*	*	*edit
[4E	.	.	.	4G	-ctam	[4g	san-
=182	=182	=182	=182	=182	=182	=182	=182
4E]	.	2A	-tho-	2r	.	4g]	.
8DL	.	.	.	.	.	8f#jL	.
8CJ	.	.	.	.	.	8eJ	.
2D	-ctam	2A	-li-	2d	ca-	2f#j	.
!!LO:LB:g=original
=183	=183	=183	=183	=183	=183	=183	=183
1E	ca-	[1G	-cam	2.B	-tho-	2g	-ctam,
*	*	*	*	*	*	*	*Xedit
.	.	.	.	.	.	2g	ca-
.	.	.	.	4c	-li-	.	.
=184	=184	=184	=184	=184	=184	=184	=184
2E	-tho-	1G]	.	4B	-cam	2.g	-tho-
.	.	.	.	2e	et	.	.
4E	-li-	.	.	.	.	.	.
4E	-cam	.	.	8dL	a-	4g	-li-
.	.	.	.	8cJ	.	.	.
=185	=185	=185	=185	=185	=185	=185	=185
2E	et	2G	et	2.B	-po-	2g	-cam
*	*	*	*	*	*	*	*edit
4E	a-	4G	a-	.	.	2g	et
4E	-po-	4G	-po-	[4c	-sto-	.	.
=186	=186	=186	=186	=186	=186	=186	=186
2E	-sto-	2G	-sto-	4c]	.	4g	a-
.	.	.	.	8BL	.	4g	-po-
.	.	.	.	8AJ	.	.	.
2E	-li-	2G	-li-	2G	-li-	4g	-sto-
.	.	.	.	.	.	4g	-li-
=187	=187	=187	=187	=187	=187	=187	=187
2D	-cam	1d	-cam	2A	-cam	2f	-cam
2G	Ec-	.	.	2r	.	2b-i	Ec-
=188	=188	=188	=188	=188	=188	=188	=188
2F	.	2d	Ec-	2D	Ec-	2a	.
2D	-cle-	2d	-cle-	4.F	-cle-	2dd	-cle-
.	.	.	.	8G	.	.	.
!!LO:LB:g=original
=189	=189	=189	=189	=189	=189	=189	=189
2AA	.	2e	.	2A	.	4.cc	.
.	.	.	.	.	.	8b	.
4r	.	4f	.	4d	.	4a	.
[4C	-si-	[4e	-si-	4e	.	[4g	.
=190	=190	=190	=190	=190	=190	=190	=190
4C]	.	4e]	.	4c	.	4g]	.
4F	.	2d	-am.	4A	-si-	4f	.
2AA	-am.	.	.	2A	-am.	2e	.
.	.	4c	.	.	.	.	.
=191	=191	=191	=191	=191	=191	=191	=191
2r	.	2.d	Con-	1r	.	4d	.
.	.	.	.	.	.	2f	.
2D	Con-	.	.	.	.	.	.
.	.	4c	-fi-	.	.	[4a	.
=192	=192	=192	=192	=192	=192	=192	=192
2E	-fi-	2B	-te-	1r	.	4a]	.
.	.	.	.	.	.	4g#i	-si-
2F	-te-	2A	-or...	.	.	2a	-am.
=193	=193	=193	=193	=193	=193	=193	=193
2G	-or	1r	.	2d	Con-	1r	.
2D	u-	.	.	4d	-fi-	.	.
.	.	.	.	4d	-te-	.	.
=194	=194	=194	=194	=194	=194	=194	=194
4E	-num	1r	.	4B	-or	1r	.
4E	ba-	.	.	2c	u-	.	.
2F	-pti-	.	.	.	.	.	.
.	.	.	.	8BL	-num	.	.
.	.	.	.	8AJ	.	.	.
!!LO:PB:g=original
=195	=195	=195	=195	=195	=195	=195	=195
*	*	*	*	*	*	*	*Xedit
2G	-sma	1r	.	4G	ba-	2dd	Con-
.	.	.	.	4d	-pti-	.	.
4r	.	.	.	4e	-sma	4cc	-fi-
4D	in	.	.	4f#j	in	8bL	-te-
.	.	.	.	.	.	8aJ	.
=196	=196	=196	=196	=196	=196	=196	=196
4E	re-	1r	.	4g	re-	4g	-or
*	*	*	*	*	*	*	*edit
4F	-mis-	.	.	4d	-mis-	4a	u-
2G	-si-	.	.	4e	-si-	4g	-num
.	.	.	.	[4d	-o-	4b	ba-
=197	=197	=197	=197	=197	=197	=197	=197
4D	-o-	1r	.	4d]	.	4a	-pti-
2G	.	.	.	8cL	.	4g	.
.	.	.	.	8BJ	.	.	.
.	.	.	.	2A	.	2a	-sma.
4F#i	.	.	.	.	.	.	.
=198	=198	=198	=198	=198	=198	=198	=198
2G	-nem	1r	.	2G	-nem	1r	.
4C	pec-	.	.	4E	pec-	.	.
4D	.	.	.	4F	.	.	.
=199	=199	=199	=199	=199	=199	=199	=199
4E	.	1r	.	4E	.	1r	.
4F	.	.	.	2A	-ca-	.	.
4F	-ca-	.	.	.	.	.	.
8EL	.	.	.	8GL	.	.	.
8DJ	.	.	.	8FJ	.	.	.
=200	=200	=200	=200	=200	=200	=200	=200
2C	-to-	1r	.	4.E	-to-	2g	Et
.	.	.	.	8F	.	.	.
4E	.	.	.	4G	.	4e	ex-
4D	.	.	.	4A	.	4f	.
!!LO:LB:g=original
=201	=201	=201	=201	=201	=201	=201	=201
4G	.	1r	.	4B	.	4e	.
4F	.	.	.	4c	.	2a	-spe-
2D	.	.	.	4d	.	.	.
.	.	.	.	4B	.	8gL	.
.	.	.	.	.	.	8fJ	.
=202	=202	=202	=202	=202	=202	=202	=202
2C	-rum.	1r	.	1c	-rum.	2.e	.
4C	Et	.	.	.	.	.	.
4C	ex-	.	.	.	.	4c	.
=203	=203	=203	=203	=203	=203	=203	=203
4C	-spe-	2.e	Re-	2r	.	2c	-cto
4C	-cto	.	.	.	.	.	.
2C	re-	.	.	4.c	Et	4cc	re-
.	.	4e	-sur-	.	.	4cc	-sur-
.	.	.	.	8B	.	.	.
=204	=204	=204	=204	=204	=204	=204	=204
2C	-sur-	4e	-re-	2G	ex-	4cc	-re-
.	.	4e	-cti-	.	.	4cc	-cti-
4G	-re-	2d	-o-	4E	-spe-	4b	-o-
4F	-cti-	.	.	[4F	.	[4a	-nem
=205	=205	=205	=205	=205	=205	=205	=205
2D	-o-	2d	-nem	8F]L	.	4a]	.
.	.	.	.	8GJ	.	.	.
.	.	.	.	2A	.	8gL	.
.	.	.	.	.	.	8fJ	.
4AA	-nem	4c	mor-	.	.	4e	mor-
[4BB	mor-	4B	-tu-	[4D	-cto	[4d	-tu-
=206	=206	=206	=206	=206	=206	=206	=206
4BB]	.	2G	-o-	4D]	.	4d]	.
4GG	-tu-	.	.	2d	re-	2g	-o-
2D	-o-	2A	.	.	.	.	.
.	.	.	.	4d	-sur-	4f#i	.
!!LO:LB:g=original
=207	=207	=207	=207	=207	=207	=207	=207
2GG	-rum.	[1G	-rum.	4.B	-re-	2g	-rum.
.	.	.	.	8c	-cti-	.	.
2r	.	.	.	2d	-o-	4r	.
*	*	*	*	*	*	*	*Xedit
.	.	.	.	.	.	4d	Et
=208	=208	=208	=208	=208	=208	=208	=208
2C	Et	1G_	.	2c	-nem	2e	vi-
2BB	vi-	.	.	4r	.	4d	-tam
.	.	.	.	4d	mor-	4d	ven-
=209	=209	=209	=209	=209	=209	=209	=209
4GG	-tam	1G_	.	4d	-tuo-	2g	-tu-
4GG	ven-	.	.	4d	-rum.	.	.
2C	-tu-	.	.	2e	Et	2g	-ri
=210	=210	=210	=210	=210	=210	=210	=210
1GG	-ri	1G]	.	2d	vi-	2b	se-
.	.	.	.	2B	-tam	4g	-cu-
.	.	.	.	.	.	4g	-li.
=211	=211	=211	=211	=211	=211	=211	=211
2AA	se-	1r	.	2A	ven-	2cc	A-
2GG	-cu-	.	.	4B	-tu-	2b	.
.	.	.	.	4G	-ri	.	.
=212	=212	=212	=212	=212	=212	=212	=212
2AA	-li.	1r	.	2c	se-	2a	.
4r	.	.	.	2d	-cu-	2b	.
4GG	A-	.	.	.	.	.	.
!!LO:LB:g=original
=213	=213	=213	=213	=213	=213	=213	=213
*	*	*	*	*	*	*	*edit
2C	.	1r	.	2e	-li.	2g	-men,
4AA	.	.	.	4r	.	4cc	a-
4BB	.	.	.	[4d	A-	4dd	.
=214	=214	=214	=214	=214	=214	=214	=214
2GG	.	1r	.	4d]	.	4b	.
.	.	.	.	2g	.	4g	.
*	*edit	*	*	*	*	*	*
2D	-men,	.	.	.	.	2a	.
.	.	.	.	4f	.	.	.
=215	=215	=215	=215	=215	=215	=215	=215
4r	.	1r	.	4e	.	4g	.
4D	a-	.	.	4d	.	4f	.
2C	.	.	.	4e	.	4g	.
.	.	.	.	4c	.	4e	.
=216	=216	=216	=216	=216	=216	=216	=216
4BB	.	1r	.	4d	.	4d	.
4GG	.	.	.	4B	.	2g	.
2D	.	.	.	2A	.	.	.
.	.	.	.	.	.	4f#i	.
=217	=217	=217	=217	=217	=217	=217	=217
4.GG	.	[1Gl	Amen.	[1Gl	-men.	[1gl	-men.
16AALL	.	.	.	.	.	.	.
16BBJJ	.	.	.	.	.	.	.
4.C	.	.	.	.	.	.	.
16BBLL	.	.	.	.	.	.	.
16AAJJ	.	.	.	.	.	.	.
=218	=218	=218	=218	=218	=218	=218	=218
1GGl	-men.	1G]	.	1G]	.	1g]	.
==	==	==	==	==	==	==	==
*-	*-	*-	*-	*-	*-	*-	*-
!!!system-decoration: [*]
!!!RDF**kern: j = editorial accidental, optional, paren up
!!!RDF**kern: i = editorial accidental
!!!RDF**kern: l = terminal breve
!!!PTL: Gaspar van Weerbeke: Collected Works. I. Masses, Part 1
!!!PPR: American Institute of Musicology
!!!PC#: Corpus Mensurabilis Musicae 106/I.1
!!!PDT: 2014
!!!PED: Pavanello, Agnese
!!!YEC: Copyright 2016, Pavanello, Agnese
!!!YEM: CC-BY-NC 4.0 (https://creativecommons.org/licenses/by-nc/4.0/legalcode)
!!!EED: Mair-Gruber, Roland
!!!EEV: 2021/11/08
!!!title: @{OPR} &mdash; @{OTL}
